X:3654
T:Liam O'Flynn
O:England
M:4/4
L:1/8
S:Martin Hayes
K:G
F|G2BG cGBG|ADDE FGAF|G2BG cGBG|Addc AGG:|
f|g2dg Bgdg|g2dg eaaf|g2dg BgdB|cAdc AGG:|


